X: 362
T: Arkansas Traveler
C:Traditional
B: jims roots
B: ralph
B: nick
M:2/4
L:1/4
Q: 1/4=100
K:D
V:1 
%Q:180
|: "D"D/F/E/D/ "G"B,B,/B,/ | "D"A,A, DD/D/ | "A"EE FF/D/ | E/F/E/D/ B,A, | "D"D/F/E/D/ "G"B,B,/B,/ |
"D"A,A, DD/D/ | "D"d/c/d/A/ "G"B/d/A/G/ |[1 "D"F/D/"A"E/C/ "D"Dz :|[2 "D"F/D/"A"E/C/ "D"Df/g/||
|: "D"a/g/f/a/ "G"g/f/e/g/ | "D"f/e/d/f/ "A"eA | "D"dd/d/ "A"ee/e/ | "D"f/e/d/f/ "A"ef/g/ |
"D"a/g/f/a/ "G"g/f/e/g/ | "D"f/e/d/f/ "A"eA | "D"d/c/d/A/ "G"B/d/A/G/ |[1 "D"F/D/"A"E/F/ "D"Df/g/ :|[2 "D"F/D/"A"E/F/ "D"D2 |]
% abcbook-tune_id 6298c24514abacded9935ae5


% abcbook-boost 0
% abcbook-tablature 
% abcbook-transpose 
% abcbook-lastupdated 1665490791899
% abcbook-soundfonts 
% abcbook-repeats 1


